icons/rx_fill.svg

<svg width="48" height="48" viewBox="0 0 48 48" fill="none" xmlns="http://www.w3.org/2000/svg">
<path fill-rule="evenodd" clip-rule="evenodd" d="M4 24C4 12.9543 12.9543 4 24 4C35.0457 4 44 12.9543 44 24C44 35.0457 35.0457 44 24 44C12.9543 44 4 35.0457 4 24ZM16 14C16 13.4477 16.4477 13 17 13H23C25.7614 13 28 15.2386 28 18C28 20.6273 25.9736 22.7813 23.3984 22.9844L28 27.5859L32.2929 23.293L33.7072 24.7072L29.4142 29.0001L33.7071 33.293L32.2928 34.7072L28 30.4143L23.7072 34.7072L22.2929 33.293L26.5858 29.0001L20.5857 23H18V30H16V14ZM23 21H18V15H23C24.6569 15 26 16.3431 26 18C26 19.6569 24.6569 21 23 21Z" fill="black"/>
</svg>

<svg
  xmlns="http://www.w3.org/2000/svg"
  width="24"
  height="24"
  viewBox="0 0 24 24"
  fill="none"
  stroke="currentColor"
  stroke-width="2"
  stroke-linecap="round"
  stroke-linejoin="round"
>
  <path
    fill-rule="evenodd"
    d="M4 24C4 12.954 12.954 4 24 4s20 8.954 20 20-8.954 20-20 20S4 35.046 4 24m12-10a1 1 0 0 1 1-1h6a5 5 0 0 1 .398 9.984L28 27.586l4.293-4.293 1.414 1.414L29.414 29l4.293 4.293-1.414 1.414L28 30.414l-4.293 4.293-1.414-1.414L26.586 29l-6-6H18v7h-2zm7 7h-5v-6h5a3 3 0 1 1 0 6"
    clip-rule="evenodd"
  />
</svg>
